X: 11
T:Boil the Breakfast Early
M:C|
L:1/8
R:reel
K:G
BA|G2BGAD~D2|G2BG c2BA|GABG AD ~D2|GE~E2 c2 BA|!
~G3 B AD~D2|G2BG c2Bc|dBcA BGAF|GE~E2 c2 ||!
K:D Bc|dA~A2 dAFA|dA~A2dfec|dA~A2 dAFA|GE~E2 =c2 Bc|!
_ dA~A2 dAFA|dA~A2dfec|dBcA BGAF|GE~E2 =c2 BA||
